X:1
T:Io vorrei pur fuggir
T:Francesco Corteccia
T:Io vorrei pur fuggir
T:Copyright © 
T:Copyright © 
T:Copyright © 
T:Copyright © 
T:Copyright © 
C:Francesco Corteccia
Z:Copyright ©
%%score [ 1 2 3 4 ]
L:1/8
M:2/2
K:F
V:1 treble nm="SOPRANO" snm="S."
V:2 treble nm="ALTO" snm="A."
V:3 treble-8 transpose=-12 nm="TENOR" snm="T."
V:4 bass nm="BASS" snm="B."
V:1
 z8 | F4 F2 G2 | AFBB A2 GF- | FE/D/ E2 F2 E2 | z2 F2 F2 G2 | AFBB A2 GF- | FE/D/ E2 F4 | %7
w: |Io vor- rei|pur fug- gir cru- del' a- mo-|* * * * * re|Io vor- rei|pur fug- gir cru- del' a- mo-|* * * * re|
 z2 A2 B2 G2 | A2 A2 F4 | E4 z2 E2 | F2 D2 E2 F2 | D4 C4 | C4 z2 A2 | G2 G2 E2 E2 | F2 G2 E2 F2 | %15
w: Dal tuo gio-|gh'as- pr'e gra-|ve dal|tuo gio- gh'as- pr'e|gra- *|ve E|scior- r'il cor da|l'em- pie tue ca-|
 D4 C2 G2 | A2 B2 G2 G2 | A2 F2 F G2 F- | FE/D/ E2 F4 | z2 C2 D4- | D2 D2 D2 D2 | C4 C2 C2 | F8 | %23
w: te- ne E|scior- r'il cor da|l'em- pie tue ca- te-|* * * * ne|Ma si|_ dol- ce e|soa- ve in-|gan-|
 E4 z2 E2 | E6 F2 | F2 G2 G2 A2 | d2 A3 G/F/ G2 | A4 z2 G2 | A6 A2 | B2 B2 A2 A2 | F2 G3 F F2- | %31
w: no or-|dis- c'a|que- lla spe- me|o- gn'ho- * * *|ra Ch'a|for- za|nel tuo im- per|le- ga- to il|
 F2 E2 F4 | z2 C2 D4- | D2 D2 D2 D2 | C4 C2 C2 | F8 | E4 z2 E2 | F2 E2 D2 F2 | E2 E2 D4 | %39
w: _ tie- ne|Co- si|_ nel fol- l'er-|ro- re Mi|vi-|vo e|par- me ch'o- gni|pic- ciol be-|
 C4 z2 F2 | F2 G2 A2 F2 | B3 B A2 GF- | FE/D/ E2 F4 | z2 F2 F2 G2 | A2 F2 B3 B | A2 G F2 E/D/ E2 | %46
w: ne Mi|pag- hi di mil-|l'on- te e mil- le|_ pe- * * ne|Mi pag- hi|di mil- l'on- te|e mil- le pe- * *|
 F8- | F8- | F8 |] %49
w: ne.|_||
V:2
 z2 C2 D2 D2 | CA,DD D3 D | ECDE FFDD | D2 C2 z2 G,2 | A,2 C2 DDEE | FC F3 E D2 | C4 C4 | %7
w: Io vor- rei|pur fug- gir fug- gir fug-|gir cru- del' a- mor cru- del a-|mo- re Io|vor- rei pur fug- gir fug-|gir cru- del' a- mo-|* re|
 z2 F2 F2 E2 | F2 F2 D4 | C8 | z2 F,2 C2 C2 | B,2 B,2 G,4 | A,4 z2 F2 | E2 D2 C2 C2 | %14
w: Dal tuo gio-|gh'as- pr'e gra-|ve|dal- tuo gio-|gh'as- pr'e gra-|ve E|scior- r'il cor da|
 C2 D2 C2 A,C- | CB,/A,/ B,2 C2 E2 | F2 F2 E2 E2 | E2 D2 C2 B,2 | C4 C4 | z2 A,2 B,4- | %20
w: l'em- pie tue ca- te-|* * * * ne E|scior- r'il cor da|l'em- pie tue ca-|te- ne|Ma si|
 B,2 B,2 B,2 B,2 | G,4 A,2 A,2 | A,3 G, A,2 B,2 | C8 | z2 C2 C4- | C2 D2 D2 E2 | F2 E2 D3 E | %27
w: _ dol- ce e|soa- ve in-|gan- * * *|no|or dis-|* c'a que- lla|spe- m'o- gn'ho- *|
 F2 E2 z2 E2 | F6 F2 | F2 F2 F2 C2 | D2 E2 D4 | C4 C4 | z2 A,2 B,4- | B,2 B,2 B,2 B,2 | %34
w: * ra Ch'a|for- za|nel tuo im- per|le- ga- to'il|tie- ne|Co- si|_ nel fol- l'er-|
 G,4 A,2 A,2 | A,3 G, A,2 B,2 | C8 | z2 C2 F,2 F,2 | G,2 C2 A,2 B,2 | G,4 A,2 C2 | D2 D2 E2 C2 | %41
w: ro- re Mi|vi- * * *|vo|e par- me|ch'o- gni pic- ciol|be- ne Mi|pag- hi di mil-|
 F3 F E2 D2 | D2 C2 z2 D2 | D2 C2 D2 E2 | F2 C2 F4 | E2 D4 C2 | z2 D2 D2 C2 | D8 | C8 |] %49
w: l'on- t'e mil- le|pe- ne Mi|pag- hi di mil-|l'on- t'e mil-|le pe- ne|e mil- le|pe-|ne.|
V:3
 F4 F2 G2 | AFBB B3 B | AA G2 FF B>A | G4 F2 c2 | c2 A2 AAcc | cA d2 c2 BA | GF G2 F4 | %7
w: Io vor- rei|pur fug- gir fug- gir cru-|del' a- mo- re cru- del' a-|mo- re Io|vor- rei pur fug- gir fug-|gir cru- del' a- mo- *|* * * re|
 z2 c2 d2 c2 | c2 c2 B4 | G4 z2 G2 | A2 B2 G2 A2 | G2 F3 E/D/ E2 | F4 z2 c2 | c2 B2 G2 G2 | %14
w: Dal tuo gio-|gh'as- pr'e gra-|ve Dal|tuo gio- gh'as- pr'e|gra- * * * *|ve E|scior- r'il cor da|
 A2 G2 A2 F2 | G4 C2 c2 | c2 d2 c2 c2 | c2 B2 GABF | G4 F4 | z2 F2 F4- | F2 F2 F2 F2 | E4 E2 E2 | %22
w: l'em- pie tue ca-|te- ne E|scior- r'il cor da|l'em- pie tue _ ca- *|te- ne|Ma si|_ dol- ce e|soa- ve in-|
 F6 G2 | A4 G4 | z2 A2 A4- | A2 B2 B2 c2 | d2 c2 B4 | A4 z2 c2- | c2 d4 d2 | d2 d2 c4 | %30
w: gan- *|* no|or- dis-|* c'a que- lla|spe- m'o- gn'ho-|ra Ch'a|_ for- za|nel tuo'im- per|
 z2 c2 A2 B2 | G4 F4 | z2 F2 F4- | F2 F2 F2 F2 | E4 E2 E2 | F6 G2 | A4 G2 G2 | A2 G2 B2 AB | %38
w: le- ga- to'il|tie- ne|Co- si|_ nel fol- l'er-|ro- re Mi|vi- *|* vo e|par- mi ch'o- gni _|
 cBAG FE F2- | FE/D/ E2 F2 A2 | B2 B2 A2 A2 | d3 d cA B2 | G4 F4 | z2 A2 A2 c2 | c2 A2 d3 d | %45
w: pic- * * * * * ciol|_ _ _ be- ne Mi|pag- hi di mil-|l'on t'e mil- * le|pe- ne|Mi pag- hi|di mil- l'on- t'e|
 cA B2 G4 | F4 z2 A2 | A2 A2 B4 | A8 |] %49
w: mil- * le pe-|ne e|mil- le pe-|ne.|
V:4
 z8 | z8 | z4 z2 B,,2 | B,,2 C,2 D,B,,C,C, | F,3 E, D,2 C,2 | z2 B,,2 F,2 B,,2 | C,4 F,,4 | %7
w: ||Io|vor- rei pur fug- gir cru-|del' a- mo- re|cru- del' a-|mo- re|
 z2 F,2 B,,2 C,2 | F,2 F,2 B,,4 | C,8 | z2 B,,2 C,2 F,,2 | B,,2 B,,2 C,4 | F,,4 z2 F,2 | %13
w: Dal tuo gio-|gh'as- pr'e gra-|ve|Dal tuo gio-|gh'as- pr'e gra-|ve E|
 G,2 G,2 C,4 | z8 | z4 z2 C,2 | F,2 B,,2 C,2 C,2 | A,,2 B,,2 C,2 D,2 | C,4 F,,4 | z2 F,,2 B,,4- | %20
w: scior- r'il cor||E|scior- r'il cor da|l'em- pie tue ca-|te- ne|Ma si|
 B,,2 B,,2 B,,2 B,,2 | C,4 A,,2 A,,2 | D,8 | C,8 | z8 | z8 | z8 | z4 C,4 | F,4 D,4 | %29
w: _ dol- ce e|soa- ve in-|gan-|no||||Ch'a|for- za|
 B,,2 B,,2 F,3 E, | D,2 C,2 D,2 B,,2 | C,4 F,,4 | z2 F,,2 B,,4- | B,,2 B,,2 B,,2 B,,2 | %34
w: nel tuo im- per|le- ga- to il|tie- ne|Co- si|_ nel fol- l'er-|
 C,4 A,,2 A,,2 | D,8 | C,8 | z2 C,2 B,,2 D,2 | C,2 C,2 D,2 B,,2 | C,4 F,,4 | z4 z4 | z4 z2 B,,2 | %42
w: ro- re Mi|vi-|vo|e par- me|ch'o- gni pic- ciol|be- ne||Mi|
 B,,2 C,2 D,2 B,,2 | F,3 E, D,2 C,2 | F,4 B,,4 | z2 B,,2 B,,2 C,2 | D,2 B,,2 F,3 E, | D,3 C, B,,4 | %48
w: pag- hi di mil-|l'on- t'e mil- le|pe- ne|Mi pag- hi|di mil- l'on- t'e|mil- le pe-|
 F,8 |] %49
w: ne.|

